packages/ui-icons/svg/Solid/immersive-reader.svg

<svg viewBox="0 0 1920 1921" xmlns="http://www.w3.org/2000/svg">
    <g fill-rule="evenodd" clip-rule="evenodd">
        <path d="M1579.74 1372.56c-7.79 139.03-69.52 272.68-155.93 386.86l-128.05-95.17c73.65-97.32 118.62-201.59 124.17-300.49 5.38-96.06-25.87-193.14-116.74-283.19l113.18-112.157c122.55 121.437 171.33 262.287 163.37 404.147Z"/>
        <path d="M1918.78 1399.41c-11.46 186.68-102.32 366.84-230.38 521.37l-123.7-100.66c114.62-138.3 185.55-287.57 194.31-430.34 8.54-139.11-41.2-281.04-186.43-412.47l107.94-117.124c178.34 161.404 249.94 348.904 238.26 539.224ZM160.063 159.401h409.945c147.283 0 266.771 118.411 266.771 264.464v232.231h1.882v125.751h160.062V423.763c0-146.003 119.437-264.362 266.767-264.362h388.49v622.446h.18v-70.375h159.88V.784h-548.55c-143.45 0-270.374 70.13-347.763 177.68C840.334 70.923 713.432.784 570.008.784H0V1660.6h330.804v-158.62H160.063V159.401Z"/>
        <path d="M1014.36 885.009 784.214 1113.07H497.901v546.88h269.988l246.471 244.24h193.21V885.009h-193.21Zm33.15 191.471-196.996 195.21H657.963v229.64h176.226l213.321 211.39v-636.24Z"/>
    </g>
</svg>

<svg viewBox="0 0 1920 1921" xmlns="http://www.w3.org/2000/svg">
    <g fill-rule="evenodd" clip-rule="evenodd" stroke="none" stroke-width="1">
        <path fill-rule="evenodd" clip-rule="evenodd" d="M1579.74 1372.56C1571.95 1511.59 1510.22 1645.24 1423.81 1759.42L1295.76 1664.25C1369.41 1566.93 1414.38 1462.66 1419.93 1363.76C1425.31 1267.7 1394.06 1170.62 1303.19 1080.57L1416.37 968.413C1538.92 1089.85 1587.7 1230.7 1579.74 1372.56Z"/>
        <path fill-rule="evenodd" clip-rule="evenodd" d="M1918.78 1399.41C1907.32 1586.09 1816.46 1766.25 1688.4 1920.78L1564.7 1820.12C1679.32 1681.82 1750.25 1532.55 1759.01 1389.78C1767.55 1250.67 1717.81 1108.74 1572.58 977.31L1680.52 860.186C1858.86 1021.59 1930.46 1209.09 1918.78 1399.41Z"/>
        <path d="M160.063 159.401H570.008C717.291 159.401 836.779 277.812 836.779 423.865V656.096H838.661V781.847H998.723V423.763C998.723 277.76 1118.16 159.401 1265.49 159.401H1653.98V781.847H1654.16V711.472H1814.04V0.78418H1265.49C1122.04 0.78418 995.116 70.914 917.727 178.464C840.334 70.9225 713.432 0.78418 570.008 0.78418H0V1660.6H330.804V1501.98H160.063V159.401Z"/>
        <path fill-rule="evenodd" clip-rule="evenodd" d="M1014.36 885.009L784.214 1113.07H497.901V1659.95H767.889L1014.36 1904.19H1207.57V885.009H1014.36ZM1047.51 1076.48L850.514 1271.69H657.963V1501.33H834.189L1047.51 1712.72V1076.48Z"/>
    </g>
</svg>
